X: 1
T: TEST: Chords
M: C
L: 1/8
K: C
[| "Stem up:"[FA] [F2A] [F2A2] [GB] \
 | ""[AF] [A2F] [A2F2] [GE] \
 | "(beam)"([BG][BG]) ([BG][AF]) \
 | "(sep)"([BG] [B2G]) ([B2G2][AF]) \
 | "da-sh"[BG]-[BG] [BG]-[AF] \
 | "da-sh"[BG]- [B2G] [B2G2]- [AF] \
 | "da-sh-"[B-G-][BG] [B-G-][AF] \
 | "da-sh-"[B-G-] [B2G] [B2-G2-] [AF] \
 |]
[| "Down:"[fa] [f2a] [f2a2] [gb] \
 | ""[af] [a2f] [a2f2] [ge] \
 | "(beam)"([bg][bg]) ([bg][af]) \
 | "(sep)"([bg] [b2g]) ([b2g2][af]) \
 | "da-sh-"[b-g-][bg] [b-g-][af] \
 | "da-sh-"[b-g-] [b2g] [b2-g2-] [af] \
 |]
